X:1
T:Standin In The Need of Prayer
T:Old ship of Zion
T:Copyright 1881 by The Riverside Press
T:Rodeheaver's Plantation Melodies
T:Rodeheaver's Plantation Melodies
Z:Rodeheaver's Plantation Melodies
%%score [ 1 2 3 4 ]
L:1/8
Q:1/4=100
M:4/4
K:G
V:1 treble nm="Soprano" snm="S."
V:2 treble nm="Alto" snm="A."
V:3 bass nm="Tenor" snm="T."
V:4 bass nm="Bass" snm="B."
V:1
 (D3 G) | G2- G2 A2 G2 | E2 D2 G2 G2 | (A6 G2) | B4 B(A G2) | G2- G2 A2 G2 | E2 D2 E2 G2 | G4 :| %8
 D2 G2 | G2 G2 G2 G2 | G2 G2 G2 A2 | BB B2 B(A G2) | A8 | (A6 B2) | G2 G2 E2 G2 | G8 |] %16
V:2
 (D3 G) | G2- G2 A2 G2 | E2 D2 G2 G2 | (A6 G2) | B4 B(A G2) | G2- G2 A2 G2 | E2 D2 E2 G2 | G4 :| %8
w: What- *|ship is that a|sail- ing, Hal- le-|lu- *|jah. What- * *|ship is that a|sail- ing, Hal- le-|lu.|
 D2 G2 | G2 G2 G2 G2 | G2 G2 G2 A2 | BB B2 B(A G2) | A8 | (A6 B2) | G2 G2 E2 G2 | G8 |] %16
w: Do you|think that she is|a- ble. For to|car- ry us all- * *|home.-|O- *|glo- ry. Hal- le-|lu.|
V:3
 z4 | z8 | z4 B,2 B,2 | D8 | D4 D(C B,2) | B,2- B,2 C2 B,2 | B,2 B,2 B,2 B,2 | B,4 :| B,2 B,2 | %9
 B,2 B,2 B,2 B,2 | B,2 B,2 B,2 B,2 | DD D2 D4 | D8 | D8 | B,2 B,2 B,2 B,2 | B,8 |] %16
V:4
 z4 | z8 | z4 B,2 B,2 | D,8 | G,4 G,,4 | G,,2- G,,2 G,,2 G,,2 | G,,2 G,,2 G,,2 G,,2 | G,,4 :| z4 | %9
 z8 | z4 G,2 G,2 | G,G, G,2 G,4 | D,8 | D,8 | G,,2 G,,2 G,,2 G,,2 | G,,8 |] %16

